common/src/main/resources/glyphs/expui/nodes/static.svg

<svg xmlns="http://www.w3.org/2000/svg" width="16" height="16" fill="#FFC107" data-big="true" viewBox="0 0 24 24"><path d="M5.68 19.74A10 10 0 0 0 11 21.95v-2.02a7.94 7.94 0 0 1-3.9-1.62m5.9 1.62v2.02c2-.2 3.84-1 5.32-2.21l-1.43-1.43c-1.1.86-2.43 1.44-3.89 1.62m5.31-3.03 1.43 1.43c1.21-1.48 2.01-3.33 2.21-5.33h-2.02a7.94 7.94 0 0 1-1.62 3.9M15 12a3 3 0 0 0-3-3 3 3 0 0 0-3 3 3 3 0 0 0 3 3 3 3 0 0 0 3-3M4.07 13H2.05c.2 2 1 3.84 2.21 5.32l1.43-1.43A7.87 7.87 0 0 1 4.07 13m1.62-5.9L4.26 5.68A10 10 0 0 0 2.05 11h2.02c.18-1.46.76-2.79 1.62-3.9M19.93 11h2.02c-.2-2-1-3.84-2.21-5.32L18.31 7.1a7.94 7.94 0 0 1 1.62 3.9m-1.61-6.74A10 10 0 0 0 13 2.05v2.02c1.46.18 2.79.76 3.9 1.62M11 4.07V2.05c-2 .2-3.84 1-5.32 2.21L7.1 5.69A7.94 7.94 0 0 1 11 4.07"/></svg>

<!--
  - The MIT License (MIT)
  -
  - Copyright (c) 2015-2024 Elior "Mallowigi" Boukhobza
  -
  - Permission is hereby granted, free of charge, to any person obtaining a copy
  - of this software and associated documentation files (the "Software"), to deal
  - in the Software without restriction, including without limitation the rights
  - to use, copy, modify, merge, publish, distribute, sublicense, and/or sell
  - copies of the Software, and to permit persons to whom the Software is
  - furnished to do so, subject to the following conditions:
  -
  - The above copyright notice and this permission notice shall be included in all
  - copies or substantial portions of the Software.
  -
  - THE SOFTWARE IS PROVIDED "AS IS", WITHOUT WARRANTY OF ANY KIND, EXPRESS OR
  - IMPLIED, INCLUDING BUT NOT LIMITED TO THE WARRANTIES OF MERCHANTABILITY,
  - FITNESS FOR A PARTICULAR PURPOSE AND NONINFRINGEMENT. IN NO EVENT SHALL THE
  - AUTHORS OR COPYRIGHT HOLDERS BE LIABLE FOR ANY CLAIM, DAMAGES OR OTHER
  - LIABILITY, WHETHER IN AN ACTION OF CONTRACT, TORT OR OTHERWISE, ARISING FROM,
  - OUT OF OR IN CONNECTION WITH THE SOFTWARE OR THE USE OR OTHER DEALINGS IN THE
  - SOFTWARE.
  -->


<svg data-big="true" xmlns="http://www.w3.org/2000/svg" version="1.1" width="16px" height="16px" viewBox="0 0 24 24"
     fill="#FFC107">
  <path
    d="M5.68,19.74C7.16,20.95 9,21.75 11,21.95V19.93C9.54,19.75 8.21,19.17 7.1,18.31M13,19.93V21.95C15,21.75 16.84,20.95 18.32,19.74L16.89,18.31C15.79,19.17 14.46,19.75 13,19.93M18.31,16.9L19.74,18.33C20.95,16.85 21.75,15 21.95,13H19.93C19.75,14.46 19.17,15.79 18.31,16.9M15,12A3,3 0 0,0 12,9A3,3 0 0,0 9,12A3,3 0 0,0 12,15A3,3 0 0,0 15,12M4.07,13H2.05C2.25,15 3.05,16.84 4.26,18.32L5.69,16.89C4.83,15.79 4.25,14.46 4.07,13M5.69,7.1L4.26,5.68C3.05,7.16 2.25,9 2.05,11H4.07C4.25,9.54 4.83,8.21 5.69,7.1M19.93,11H21.95C21.75,9 20.95,7.16 19.74,5.68L18.31,7.1C19.17,8.21 19.75,9.54 19.93,11M18.32,4.26C16.84,3.05 15,2.25 13,2.05V4.07C14.46,4.25 15.79,4.83 16.9,5.69M11,4.07V2.05C9,2.25 7.16,3.05 5.68,4.26L7.1,5.69C8.21,4.83 9.54,4.25 11,4.07Z"/>
</svg>
